X:1
T:I’m on My Way
T:I’m on My Way
T:G. W. Beck
T:B. F. Hagood, 1922
T:Public Domain Courtesy of the Cyber Hymnal™
C:G. W. Beck
Z:Public Domain
Z:Courtesy of the Cyber Hymnal™
%%score ( 1 2 ) ( 3 4 )
L:1/8
Q:1/4=110
M:4/4
K:Gb
V:1 treble 
V:2 treble 
V:3 bass 
V:4 bass 
V:1
 [B,D]2 | [DG]2 [DG]2 [EG]2 [FA]2 | [GB]2 [GB]2 [GB]2 [DG]2 | [EA]2 [EG]2 [CE]2 [CG]2 | %4
w: 1.~I’m|on my way un-|to the home That|Christ pre- pares for|
w: 2.~Through|grace di- vine stead-|fast I’ll stand, Though|tempt- ed day by|
w: 3.~I’m|on my way, and|how I long That|all my friends may|
 [B,D]6 [DG]2 | [GB]2 [Gd]2 [Gd]2 [Ge]2 | [Gd]2 [GB]2 [Gd]2 [DG]2 | [GB]2 [Gd]2 [GB]2 A2 | [DG]6 || %9
w: me; No|pain or sor- row|there can come, Each|soul is glad and|free.|
w: day; I’ll|hold to God’s un-|chang- ing hand, And|keep the nar- row|way.|
w: go With|me to sing the|glad, new song, And|joys e- ter- nal|know!|
"^Refrain" [DG]2 | B6 [Ge]2 | d6 [Ge]2 | [GB]2 [GB]2 [DA]2 [EG]2 | A6 [DG]2 | B6 [Ge]2 | d6 [DG]2 | %16
w: |||||||
w: I’m|on my|way, To|that bright land a-|bove; With|Christ for|aye To|
w: |||||||
 [GB]2 [Gd]2 [GB]2 A2 | G6 |] %18
w: ||
w: dwell in peace and|love.|
w: ||
V:2
 x2 | x8 | x8 | x8 | x8 | x8 | x8 | x6 (FD) | x6 || x2 | (G2 G2 G2) x2 | (G2 F2 G2) x2 | x8 | %13
 (F2 F2 F2) x2 | (G2 G2 G2) x2 | (G2 F2 G2) x2 | x6 (FD) | (D2 E2 D2) |] %18
V:3
 [G,B,]2 | [G,B,]2 [G,B,]2 [E,B,]2 [D,D]2 | [G,D]2 [G,D]2 [G,D]2 [G,B,]2 | %3
w: ~|~ ~ ~ ~|~ ~ ~ ~|
 [C,C]2 [C,C]2 [C,G,]2 [E,G,]2 | G,6 [G,B,]2 | [G,D]2 [G,B,]2 [G,B,]2 [G,C]2 | %6
w: ~ ~ ~ ~|~ ~|~ ~ ~ ~|
 [G,B,]2 [G,D]2 [G,B,]2 [G,B,]2 | [E,G,]2 [B,,D]2 [D,D]2 [D,C]2 | [G,,B,]6 || [G,B,]2 | %10
w: ~ ~ ~ ~|~ ~ ~ ~|~|~|
 [G,D]2 [E,E]2 [G,D]2 [G,C]2 | [G,B,]2 [D,A,]2 [G,B,]2 [G,B,]2 | [G,D]2 [G,D]2 [F,D]2 [E,=C]2 | %13
w: ~ my way, I’m|on my way ~|~ ~ ~ bright|
 [D,D]2 [D,D]2 [D,D]2 [G,B,]2 | [G,D]2 [E,E]2 [G,D]2 [G,C]2 | [G,B,]2 [D,A,]2 [G,B,]2 [G,B,]2 | %16
w: land a- bove ~|~ for aye, With|Christ for aye ~|
 [E,G,]2 [B,,D]2 [D,D]2 [D,C]2 | B,2 C2 B,2 |] %18
w: ~ ~ ~ in|peace and love.|
V:4
 x2 | x8 | x8 | x8 | G,6 x2 | x8 | x8 | x8 | x6 || x2 | x8 | x8 | x8 | x8 | x8 | x8 | x8 | G,,6 |] %18

